;FLAVOR:Marlin
;TIME:1400
;Filament used: 3.1342m
;Layer height: 0.2
;MINX:-41.478
;MINY:-41.487
;MINZ:0.3
;MAXX:13.178
;MAXY:13.188
;MAXZ:10.2
;TARGET_MACHINE.NAME:Unknown
;Generated with Cura_SteamEngine 5.7.0
M82 ;absolute extrusion mode
G21
G90
M82
M107 T0
M140 S60
M104 S210 T0
M190 S60
M109 S210 T0
G28
G1 F3000 Z1
G1 X-150 Y0 Z0.4
G92 E0
G3 X0 Y-130 I150 Z0.3 E30 F2000
G92 E0

G92 E0
G92 E0
G1 F2400 E-0.6
;LAYER_COUNT:49
;LAYER:0
M107
M204 S8000
M205 X10 Y10
;TYPE:SKIRT
G1 F2400 E0
G1 F1500 X-.18 Y-0.073 Z0.3
G1 X-.467 Y-0.014 E0.01608
G1 X-1.808 Y0.362 E0.09251
G1 X-1.85 Y0.32 E0.09577
G1 X-1.82 Y0.288 E0.09818
G1 X-1.429 Y0.179 E0.12045
G1 X-1.018 Y0.023 E0.14458
G1 X-.642 Y-.205 E0.16871
G1 X-.477 Y-.356 E0.18099
G1 X-.446 Y-.321 E0.18355
G1 X-.18 Y-0.073 E0.20351
M205 X100 Y100
G0 F3000 X0.176 Y-.345
M205 X10 Y10
G1 F1500 X0.516 Y-.14 E0.2253
G1 X0.891 Y-0.007 E0.24713
G1 X1.285 Y0.048 E0.26897
G1 X1.681 Y0.024 E0.29074
G1 X1.777 Y0.003 E0.29613
G1 X2.008 Y0.068 E0.3093
G1 X2.222 Y0.294 E0.32638
G1 X2.285 Y0.51 E0.33873
G1 X2.22 Y0.743 E0.352
G1 X2.033 Y0.93 E0.36652
G1 X1.802 Y0.994 E0.37967
G1 X1.606 Y0.937 E0.39087
G1 X1.581 Y0.912 E0.39281
G1 X1.273 Y0.662 E0.41458
G1 X0.921 Y0.478 E0.43638
G1 X0.539 Y0.368 E0.4582
G1 X0.142 Y0.336 E0.48005
G1 X-.349 Y0.409 E0.5073
G1 X-1.833 Y0.824 E0.59186
G1 X-2.023 Y0.769 E0.60272
G1 X-2.277 Y0.515 E0.62243
G1 X-2.331 Y0.331 E0.63295
G1 X-2.27 Y0.124 E0.6448
G1 X-2.057 Y-.101 E0.6618
G1 X-1.547 Y-.244 E0.69087
G1 X-1.177 Y-.389 E0.71268
G1 X-.844 Y-.605 E0.73446
G1 X-.651 Y-.787 E0.74902
G1 X-.449 Y-.85 E0.76063
G1 X-.285 Y-.803 E0.76999
G1 X-.117 Y-.614 E0.78387
G1 X0.176 Y-.345 E0.8057
M205 X100 Y100
G0 F3000 X0.473 Y-.673
M205 X10 Y10
G1 F1500 X0.78 Y-.504 E0.82493
G1 X1.118 Y-.41 E0.84418
G1 X1.468 Y-.394 E0.86341
G1 X1.777 Y-.447 E0.88062
G1 X1.789 Y-.45 E0.8813
G1 X2.244 Y-.322 E0.90724
G1 X2.614 Y0.068 E0.93674
G1 X2.742 Y0.509 E0.96194
G1 X2.613 Y0.972 E0.98831
G1 X2.262 Y1.323 E1.01556
G1 X1.799 Y1.452 E1.04193
G1 X1.377 Y1.329 E1.06606
G1 X1.271 Y1.224 E1.07424
G1 X0.996 Y1.007 E1.09347
G1 X0.679 Y0.857 E1.11271
G1 X0.337 Y0.783 E1.13192
G1 X-0.014 Y0.789 E1.15118
G1 X-.23 Y0.833 E1.16328
G1 X-1.836 Y1.283 E1.25481
G1 X-2.253 Y1.161 E1.27865
G1 X-2.668 Y0.746 E1.31086
G1 X-2.789 Y0.332 E1.33453
G1 X-2.663 Y-.102 E1.35933
G1 X-2.292 Y-.493 E1.38891
G1 X-1.666 Y-.668 E1.42459
G1 X-1.341 Y-.8 E1.44384
G1 X-.932 Y-1.126 E1.47254
G1 X-.888 Y-1.175 E1.47615
G1 X-.454 Y-1.309 E1.50108
G1 X-0.041 Y-1.191 E1.52465
G1 X0.212 Y-.906 E1.54557
G1 X0.473 Y-.673 E1.56477
M205 X100 Y100
G0 F3000 X0.765 Y-1.006
M205 X10 Y10
G1 F1500 X1.033 Y-.88 E1.58102
G1 X1.325 Y-.831 E1.59727
G1 X1.658 Y-.871 E1.61568
G1 X1.789 Y-.908 E1.62315
G1 X2.479 Y-.714 E1.66248
G1 X3.008 Y-.157 E1.70464
G1 X3.2 Y0.506 E1.74252
G1 X3.006 Y1.201 E1.78212
G1 X2.491 Y1.716 E1.82209
G1 X1.797 Y1.91 E1.86163
G1 X1.146 Y1.72 E1.89885
G1 X0.961 Y1.536 E1.91317
G1 X0.725 Y1.358 E1.92939
G1 X0.45 Y1.248 E1.94565
G1 X0.155 Y1.216 E1.96193
G1 X-.112 Y1.257 E1.97675
G1 X-1.837 Y1.74 E2.07506
G1 X-2.485 Y1.551 E2.11211
G1 X-3.058 Y0.978 E2.15658
G1 X-3.247 Y0.332 E2.19351
G1 X-3.055 Y-.326 E2.23113
G1 X-2.526 Y-.884 E2.27333
G1 X-1.784 Y-1.092 E2.31562
G1 X-1.513 Y-1.209 E2.33182
G1 X-1.26 Y-1.419 E2.34986
G1 X-1.135 Y-1.559 E2.36016
G1 X-.457 Y-1.767 E2.39908
G1 X0.202 Y-1.579 E2.43669
G1 X0.54 Y-1.199 E2.4646
G1 X0.765 Y-1.006 E2.48087
M205 X100 Y100
G0 F3000 X1.049 Y-1.349
M205 X10 Y10
G1 F1500 X1.266 Y-1.277 E2.49341
G1 X1.54 Y-1.294 E2.50848
G1 X1.792 Y-1.364 E2.52283
G1 X2.714 Y-1.105 E2.57539
G1 X3.4 Y-.383 E2.63005
G1 X3.657 Y0.503 E2.68067
G1 X3.398 Y1.431 E2.73355
G1 X2.721 Y2.108 E2.78609
G1 X1.794 Y2.367 E2.83891
G1 X0.913 Y2.11 E2.88928
G1 X0.65 Y1.848 E2.90965
G1 X0.463 Y1.717 E2.92218
G1 X0.241 Y1.658 E2.93478
G1 X0.007 Y1.68 E2.94768
G1 X-1.84 Y2.197 E3.05294
G1 X-2.717 Y1.941 E3.10308
G1 X-3.45 Y1.208 E3.15997
G1 X-3.707 Y0.332 E3.21007
G1 X-3.448 Y-.552 E3.26062
G1 X-2.764 Y-1.274 E3.3152
G1 X-1.903 Y-1.515 E3.36427
G1 X-1.697 Y-1.614 E3.37681
G1 X-1.588 Y-1.712 E3.38485
G1 X-1.381 Y-1.944 E3.40192
G1 X-.462 Y-2.226 E3.45467
G1 X0.446 Y-1.966 E3.50651
G1 X0.869 Y-1.491 E3.54141
G1 X1.049 Y-1.349 E3.55399
M205 X100 Y100
G0 F3000 X1.31 Y-1.716
M205 X10 Y10
G1 F1500 X1.421 Y-1.718 E3.56009
G1 X1.79 Y-1.821 E3.58111
G1 X2.951 Y-1.495 E3.64729
G1 X3.793 Y-.608 E3.71441
G1 X4.115 Y0.5 E3.77773
G1 X3.791 Y1.66 E3.84383
G1 X2.95 Y2.501 E3.9091
G1 X1.791 Y2.825 E3.97514
G1 X0.683 Y2.502 E4.03848
G1 X0.34 Y2.16 E4.06506
G1 X0.224 Y2.099 E4.07225
G1 X0.126 Y2.104 E4.07764
G1 X-1.843 Y2.655 E4.18984
G1 X-2.947 Y2.333 E4.25296
G1 X-3.84 Y1.44 E4.32226
G1 X-4.165 Y0.333 E4.38558
G1 X-3.84 Y-.778 E4.4491
G1 X-2.999 Y-1.665 E4.51618
G1 X-2.022 Y-1.939 E4.57187
G1 X-1.917 Y-2.005 E4.57868
G1 X-1.628 Y-2.329 E4.6025
G1 X-.467 Y-2.685 E4.66914
G1 X0.691 Y-2.354 E4.73524
G1 X1.198 Y-1.784 E4.7771
G1 X1.31 Y-1.716 E4.7843
M205 X100 Y100
G1 F2400 E4.1843
G1 F3000 Z0.6
G0 X1.713 Y0.452 Z0.6
M205 X10 Y10
G1 F3000 Z0.3
G1 F2400 E4.7843
G1 F1500 X1.735 Y0.448 E4.78552
G1 X1.772 Y0.459 E4.78764
G1 X1.826 Y0.515 E4.79191
G1 X1.809 Y0.532 E4.79323
G1 X1.713 Y0.452 E4.80009
M205 X100 Y100
G1 F2400 E4.20009
G1 F3000 Z0.6
G0 X-24.429 Y-1.046 Z0.6
M205 X10 Y10
G1 F3000 Z0.3
G1 F2400 E4.80009
G1 F1500 X-24.753 Y0.116 E4.86629
G1 X-25.589 Y0.952 E4.93117
G1 X-25.676 Y0.975 E4.93611
G1 X-25.787 Y1.045 E4.94331
G1 X-25.839 Y1.166 E4.95054
G1 X-25.831 Y1.25 E4.95517
G1 X-25.658 Y1.843 E4.98907
G1 X-25.982 Y3.003 E5.05517
G1 X-26.823 Y3.844 E5.12044
G1 X-27.982 Y4.168 E5.18648
G1 X-29.088 Y3.845 E5.24971
G1 X-29.982 Y2.951 E5.3191
G1 X-30.316 Y1.804 E5.38466
G1 X-30.388 Y1.694 E5.39187
G1 X-30.465 Y1.654 E5.39664
G1 X-31.189 Y1.443 E5.43802
G1 X-32.082 Y0.55 E5.50733
G1 X-32.407 Y-.557 E5.57064
G1 X-32.083 Y-1.667 E5.6341
G1 X-31.24 Y-2.554 E5.70126
G1 X-30.082 Y-2.879 E5.76726
G1 X-28.92 Y-2.554 E5.83348
G1 X-28.805 Y-2.434 E5.8426
G1 X-28.69 Y-2.37 E5.84982
G1 X-28.56 Y-2.384 E5.857
G1 X-28.486 Y-2.435 E5.86193
G1 X-27.91 Y-3.041 E5.90781
G1 X-26.752 Y-3.366 E5.97382
G1 X-25.594 Y-3.041 E6.03982
G1 X-24.751 Y-2.154 E6.10698
G1 X-24.429 Y-1.046 E6.1703
M205 X100 Y100
G0 F3000 X-24.887 Y-1.043
M205 X10 Y10
G1 F1500 X-25.147 Y-.113 E6.2233
G1 X-25.827 Y0.568 E6.27611
G1 X-25.996 Y0.646 E6.28632
G1 X-26.159 Y0.807 E6.2989
G1 X-26.257 Y1.014 E6.31147
G1 X-26.278 Y1.242 E6.32403
G1 X-26.254 Y1.373 E6.33134
G1 X-26.116 Y1.847 E6.35843
G1 X-26.375 Y2.774 E6.41126
G1 X-27.052 Y3.451 E6.4638
G1 X-27.979 Y3.71 E6.51662
G1 X-28.858 Y3.453 E6.56688
G1 X-29.591 Y2.72 E6.62377
G1 X-29.893 Y1.681 E6.68315
G1 X-29.994 Y1.475 E6.69574
G1 X-30.16 Y1.317 E6.70831
G1 X-30.342 Y1.231 E6.71936
G1 X-30.959 Y1.051 E6.75463
G1 X-31.692 Y0.318 E6.81152
G1 X-31.948 Y-.557 E6.86155
G1 X-31.69 Y-1.442 E6.91214
G1 X-31.004 Y-2.164 E6.9668
G1 X-30.084 Y-2.423 E7.01925
G1 X-29.154 Y-2.162 E7.07226
G1 X-29.123 Y-2.13 E7.07471
G1 X-28.938 Y-1.994 E7.08731
G1 X-28.718 Y-1.93 E7.09988
G1 X-28.49 Y-1.945 E7.11242
G1 X-28.28 Y-2.037 E7.125
G1 X-28.167 Y-2.132 E7.1331
G1 X-27.674 Y-2.651 E7.17239
G1 X-26.752 Y-2.91 E7.22494
G1 X-25.83 Y-2.651 E7.2775
G1 X-25.145 Y-1.93 E7.33208
G1 X-24.887 Y-1.043 E7.38278
M205 X100 Y100
G0 F3000 X-25.344 Y-1.04
M205 X10 Y10
G1 F1500 X-25.538 Y-.343 E7.42248
G1 X-26.08 Y0.199 E7.46455
G1 X-26.174 Y0.238 E7.47013
G1 X-26.407 Y0.42 E7.48636
G1 X-26.584 Y0.658 E7.50263
G1 X-26.69 Y0.934 E7.51886
G1 X-26.719 Y1.228 E7.53507
G1 X-26.676 Y1.496 E7.54997
G1 X-26.573 Y1.85 E7.5702
G1 X-26.767 Y2.544 E7.60975
G1 X-27.282 Y3.059 E7.64972
G1 X-27.976 Y3.253 E7.68926
G1 X-28.626 Y3.063 E7.72643
G1 X-29.2 Y2.489 E7.77097
G1 X-29.471 Y1.558 E7.82419
G1 X-29.591 Y1.287 E7.84045
G1 X-29.779 Y1.059 E7.85667
G1 X-30.021 Y0.888 E7.87293
G1 X-30.219 Y0.809 E7.88463
G1 X-30.727 Y0.661 E7.91367
G1 X-31.3 Y0.088 E7.95814
G1 X-31.49 Y-.559 E7.99515
G1 X-31.298 Y-1.216 E8.03271
G1 X-30.769 Y-1.773 E8.07487
G1 X-30.082 Y-1.966 E8.11403
G1 X-29.366 Y-1.765 E8.15484
G1 X-29.209 Y-1.641 E8.16582
G1 X-28.937 Y-1.525 E8.18205
G1 X-28.643 Y-1.486 E8.19832
G1 X-28.35 Y-1.527 E8.21456
G1 X-28.078 Y-1.644 E8.23081
G1 X-27.848 Y-1.829 E8.24701
G1 X-27.439 Y-2.26 E8.27962
G1 X-26.752 Y-2.453 E8.31878
G1 X-26.065 Y-2.26 E8.35794
G1 X-25.536 Y-1.703 E8.4001
G1 X-25.344 Y-1.04 E8.43798
M205 X100 Y100
G0 F3000 X-25.802 Y-1.037
M205 X10 Y10
G1 F1500 X-25.931 Y-.573 E8.46441
G1 X-26.325 Y-.18 E8.49495
G1 X-26.339 Y-.174 E8.49578
G1 X-26.629 Y0.024 E8.51505
G1 X-26.866 Y0.282 E8.53428
G1 X-27.038 Y0.587 E8.55349
G1 X-27.137 Y0.924 E8.57277
G1 X-27.158 Y1.273 E8.59196
G1 X-27.098 Y1.619 E8.61123
G1 X-27.03 Y1.851 E8.6245
G1 X-27.16 Y2.315 E8.65094
G1 X-27.511 Y2.666 E8.67818
G1 X-27.974 Y2.795 E8.70456
G1 X-28.394 Y2.673 E8.72856
G1 X-28.808 Y2.259 E8.76069
G1 X-29.048 Y1.435 E8.80779
G1 X-29.184 Y1.112 E8.82703
G1 X-29.389 Y0.827 E8.84629
G1 X-29.653 Y0.597 E8.86551
G1 X-30.096 Y0.386 E8.89244
G1 X-30.497 Y0.269 E8.91536
G1 X-30.91 Y-.144 E8.94741
G1 X-31.031 Y-.559 E8.97114
G1 X-30.905 Y-.99 E8.99578
G1 X-30.534 Y-1.381 E9.02536
G1 X-30.081 Y-1.509 E9.05119
G1 X-29.572 Y-1.366 E9.08021
G1 X-29.489 Y-1.297 E9.08613
G1 X-29.176 Y-1.14 E9.10535
G1 X-28.835 Y-1.058 E9.1246
G1 X-28.485 Y-1.054 E9.1438
G1 X-28.143 Y-1.131 E9.16304
G1 X-27.827 Y-1.282 E9.18226
G1 X-27.529 Y-1.526 E9.2034
G1 X-27.204 Y-1.869 E9.22933
G1 X-26.752 Y-1.995 E9.25508
G1 X-26.3 Y-1.868 E9.28085
G1 X-25.93 Y-1.478 E9.31035
G1 X-25.802 Y-1.037 E9.33555
M205 X100 Y100
G0 F3000 X-26.259 Y-1.036
M205 X10 Y10
G1 F1500 X-26.324 Y-.802 E9.34888
G1 X-26.61 Y-.516 E9.37108
G1 X-26.834 Y-.376 E9.38557
G1 X-27.122 Y-.102 E9.40739
G1 X-27.35 Y0.224 E9.42922
G1 X-27.507 Y0.589 E9.45103
G1 X-27.589 Y0.978 E9.47284
G1 X-27.591 Y1.376 E9.49468
G1 X-27.521 Y1.742 E9.51513
G1 X-27.488 Y1.854 E9.52154
G1 X-27.553 Y2.086 E9.53476
G1 X-27.74 Y2.273 E9.54928
G1 X-27.971 Y2.337 E9.56243
G1 X-28.164 Y2.281 E9.57346
G1 X-28.418 Y2.027 E9.59317
G1 X-28.626 Y1.312 E9.63404
G1 X-28.775 Y0.943 E9.65588
G1 X-28.994 Y0.612 E9.67766
G1 X-29.275 Y0.331 E9.69947
G1 X-29.607 Y0.112 E9.72129
G1 X-29.973 Y-0.036 E9.74296
G1 X-30.265 Y-.121 E9.75965
G1 X-30.52 Y-.376 E9.77944
G1 X-30.573 Y-.558 E9.78984
G1 X-30.512 Y-.766 E9.80174
G1 X-30.298 Y-.991 E9.81878
G1 X-30.083 Y-1.052 E9.83105
G1 X-29.785 Y-.968 E9.84804
G1 X-29.774 Y-.959 E9.84882
G1 X-29.426 Y-.766 E9.87066
G1 X-29.047 Y-.647 E9.89246
G1 X-28.652 Y-.606 E9.91425
G1 X-28.256 Y-.645 E9.93609
G1 X-27.876 Y-.762 E9.95791
G1 X-27.527 Y-.952 E9.97971
G1 X-27.21 Y-1.223 E10.0026
G1 X-26.968 Y-1.478 E10.02189
G1 X-26.752 Y-1.539 E10.03421
G1 X-26.536 Y-1.478 E10.04653
G1 X-26.322 Y-1.252 E10.06361
G1 X-26.259 Y-1.036 E10.07596
M205 X100 Y100
G0 F3000 X-26.718 Y-1.031
M205 X10 Y10
G1 F1500 X-26.883 Y-.866 E10.08876
G1 X-27.03 Y-.779 E10.09814
G1 X-27.362 Y-.492 E10.12222
G1 X-27.637 Y-.149 E10.14635
G1 X-27.846 Y0.238 E10.17049
G1 X-27.981 Y0.656 E10.19459
G1 X-28.038 Y1.092 E10.21872
G1 X-28.016 Y1.531 E10.24285
G1 X-27.945 Y1.854 E10.26099
G1 X-27.956 Y1.867 E10.26193
G1 X-28.026 Y1.797 E10.26736
G1 X-28.203 Y1.189 E10.30211
G1 X-28.364 Y0.78 E10.32624
G1 X-28.596 Y0.406 E10.35039
G1 X-28.892 Y0.081 E10.37451
G1 X-29.241 Y-.185 E10.39859
G1 X-29.613 Y-.374 E10.42149
G1 X-29.272 Y-.248 E10.44144
G1 X-28.839 Y-.174 E10.46555
G1 X-28.399 Y-.179 E10.4897
G1 X-27.968 Y-.263 E10.5138
G1 X-27.559 Y-.424 E10.53792
G1 X-27.186 Y-.656 E10.56203
G1 X-26.891 Y-.92 E10.58375
G1 X-26.752 Y-1.066 E10.59481
G1 X-26.718 Y-1.031 E10.59749
M205 X100 Y100
G1 F2400 E9.99749
G1 F3000 Z0.6
G0 X-29.69 Y-.403 Z0.6
M205 X10 Y10
G1 F3000 Z0.3
G1 F2400 E10.59749
G1 F1500 X-29.85 Y-.458 E10.60678
G1 X-30.033 Y-.511 E10.61723
G1 X-30.092 Y-.57 E10.62181
G1 X-30.07 Y-.592 E10.62352
G1 X-29.954 Y-.56 E10.63012
G1 X-29.69 Y-.403 E10.64698
M205 X100 Y100
G1 F2400 E10.04698
G1 F3000 Z0.6
G0 X-3.809 Y-26.734 Z0.6
M205 X10 Y10
G1 F3000 Z0.3
G1 F2400 E10.64698
G1 F1500 X-4.134 Y-27.841 E10.7103
G1 X-3.809 Y-28.952 E10.77382
G1 X-2.966 Y-29.842 E10.8411
G1 X-2.917 Y-29.856 E10.84389
G1 X-2.808 Y-29.929 E10.85109
G1 X-2.768 Y-30.006 E10.85585
G1 X-2.414 Y-31.232 E10.92588
G1 X-1.57 Y-32.121 E10.99316
G1 X-.411 Y-32.446 E11.05922
G1 X0.748 Y-32.121 E11.12527
G1 X1.592 Y-31.231 E11.19259
G1 X1.794 Y-30.53 E11.23262
G1 X1.866 Y-30.421 E11.23979
G1 X1.945 Y-30.379 E11.2447
G1 X3.005 Y-30.08 E11.30514
G1 X3.847 Y-29.193 E11.37226
G1 X4.169 Y-28.085 E11.43558
G1 X3.845 Y-26.925 E11.50168
G1 X3.004 Y-26.084 E11.56695
G1 X1.845 Y-25.76 E11.63299
G1 X0.738 Y-26.083 E11.69628
G1 X0.321 Y-26.499 E11.7286
G1 X0.205 Y-26.559 E11.73577
G1 X0.075 Y-26.543 E11.74296
G1 X0.011 Y-26.499 E11.74722
G1 X-.645 Y-25.844 E11.79809
G1 X-1.817 Y-25.519 E11.86484
G1 X-2.916 Y-25.841 E11.92769
G1 X-3.809 Y-26.734 E11.99699
M205 X100 Y100
G0 F3000 X-3.419 Y-26.966
M205 X10 Y10
G1 F1500 X-3.676 Y-27.842 E12.04709
G1 X-3.417 Y-28.726 E12.09765
G1 X-2.704 Y-29.478 E12.15452
G1 X-2.589 Y-29.535 E12.16156
G1 X-2.43 Y-29.7 E12.17414
G1 X-2.345 Y-29.884 E12.18526
G1 X-2.021 Y-31.007 E12.2494
G1 X-1.334 Y-31.731 E12.30418
G1 X-.411 Y-31.99 E12.35679
G1 X0.512 Y-31.731 E12.4094
G1 X1.198 Y-31.007 E12.46413
G1 X1.371 Y-30.408 E12.49835
G1 X1.471 Y-30.203 E12.51086
G1 X1.636 Y-30.044 E12.52344
G1 X1.826 Y-29.956 E12.53493
G1 X2.768 Y-29.69 E12.58865
G1 X3.454 Y-28.968 E12.6433
G1 X3.711 Y-28.082 E12.69393
G1 X3.452 Y-27.154 E12.74681
G1 X2.775 Y-26.477 E12.79935
G1 X1.848 Y-26.218 E12.85217
G1 X0.968 Y-26.475 E12.90248
G1 X0.632 Y-26.81 E12.92852
G1 X0.445 Y-26.941 E12.94105
G1 X0.223 Y-27 E12.95366
G1 X-0.005 Y-26.981 E12.96621
G1 X-.212 Y-26.884 E12.97876
G1 X-.3 Y-26.81 E12.98507
G1 X-.874 Y-26.237 E13.02958
G1 X-1.813 Y-25.976 E13.08306
G1 X-2.684 Y-26.231 E13.13287
G1 X-3.419 Y-26.966 E13.18991
M205 X100 Y100
G0 F3000 X-3.027 Y-27.196
M205 X10 Y10
G1 F1500 X-3.216 Y-27.842 E13.22685
G1 X-3.024 Y-28.5 E13.26447
G1 X-2.444 Y-29.112 E13.31074
G1 X-2.4 Y-29.132 E13.31339
G1 X-2.172 Y-29.32 E13.32961
G1 X-2.002 Y-29.562 E13.34584
G1 X-1.922 Y-29.762 E13.35766
G1 X-1.627 Y-30.783 E13.41598
G1 X-1.099 Y-31.34 E13.4581
G1 X-.411 Y-31.533 E13.49732
G1 X0.276 Y-31.34 E13.53648
G1 X0.805 Y-30.782 E13.57868
G1 X0.948 Y-30.286 E13.60701
G1 X1.067 Y-30.016 E13.6232
G1 X1.255 Y-29.786 E13.6395
G1 X1.496 Y-29.616 E13.65569
G1 X1.706 Y-29.532 E13.6681
G1 X2.533 Y-29.299 E13.71525
G1 X3.062 Y-28.742 E13.75741
G1 X3.254 Y-28.079 E13.79529
G1 X3.06 Y-27.384 E13.83489
G1 X2.545 Y-26.869 E13.87486
G1 X1.851 Y-26.675 E13.9144
G1 X1.201 Y-26.865 E13.95157
G1 X0.943 Y-27.122 E13.97155
G1 X0.707 Y-27.301 E13.98781
G1 X0.432 Y-27.41 E14.00404
G1 X0.138 Y-27.443 E14.02028
G1 X-.154 Y-27.395 E14.03652
G1 X-.423 Y-27.272 E14.05275
G1 X-.611 Y-27.121 E14.06598
G1 X-1.103 Y-26.63 E14.10413
G1 X-1.809 Y-26.434 E14.14434
G1 X-2.454 Y-26.623 E14.18122
G1 X-3.027 Y-27.196 E14.22569
M205 X100 Y100
G0 F3000 X-2.637 Y-27.428
M205 X10 Y10
G1 F1500 X-2.758 Y-27.842 E14.24936
G1 X-2.632 Y-28.276 E14.27417
G1 X-2.166 Y-28.767 E14.31131
G1 X-1.94 Y-28.93 E14.32661
G1 X-1.71 Y-29.195 E14.34586
G1 X-1.499 Y-29.64 E14.37289
G1 X-1.234 Y-30.558 E14.42533
G1 X-.864 Y-30.948 E14.45483
G1 X-.411 Y-31.075 E14.48065
G1 X0.041 Y-30.949 E14.5064
G1 X0.412 Y-30.557 E14.53602
G1 X0.525 Y-30.165 E14.55841
G1 X0.66 Y-29.841 E14.57767
G1 X0.864 Y-29.556 E14.59691
G1 X1.128 Y-29.325 E14.61616
G1 X1.587 Y-29.109 E14.644
G1 X2.297 Y-28.909 E14.68448
G1 X2.668 Y-28.517 E14.7141
G1 X2.796 Y-28.076 E14.7393
